chrome/icons/pause.svg

<svg height="16" viewBox="64 64 896 896" width="16" xmlns="http://www.w3.org/2000/svg" xmlns:xlink="http://www.w3.org/1999/xlink">
  <path d="M160,960C147,960 134.667,957.5 123,952.5C111.333,947.5 101.083,940.583 92.25,931.75C83.4167,922.917 76.5,912.667 71.5,901C66.5,889.333 64,877 64,864L64,160C64,147 66.5,134.667 71.5,123C76.5,111.333 83.4167,101.083 92.25,92.25C101.083,83.4167 111.333,76.5001 123,71.5C134.667,66.5001 147,64.0001 160,64L288,64C301,64.0001 313.333,66.5001 325,71.5C336.667,76.5001 346.917,83.4167 355.75,92.25C364.583,101.083 371.5,111.333 376.5,123C381.5,134.667 384,147 384,160L384,864C384,877 381.5,889.333 376.5,901C371.5,912.667 364.583,922.917 355.75,931.75C346.917,940.583 336.667,947.5 325,952.5C313.333,957.5 301,960 288,960ZM736,960C723,960 710.667,957.5 699,952.5C687.333,947.5 677.083,940.583 668.25,931.75C659.417,922.917 652.5,912.667 647.5,901C642.5,889.333 640,877 640,864L640,160C640,147 642.5,134.667 647.5,123C652.5,111.333 659.417,101.083 668.25,92.25C677.083,83.4167 687.333,76.5001 699,71.5C710.667,66.5001 723,64.0001 736,64L864,64C877,64.0001 889.333,66.5001 901,71.5C912.667,76.5001 922.917,83.4167 931.75,92.25C940.583,101.083 947.5,111.333 952.5,123C957.5,134.667 960,147 960,160L960,864C960,877 957.5,889.333 952.5,901C947.5,912.667 940.583,922.917 931.75,931.75C922.917,940.583 912.667,947.5 901,952.5C889.333,957.5 877,960 864,960ZM288,896C296.667,896 304.167,892.833 310.5,886.5C316.833,880.167 320,872.667 320,864L320,160C320,151.333 316.833,143.833 310.5,137.5C304.167,131.167 296.667,128 288,128L160,128C151.333,128 143.833,131.167 137.5,137.5C131.167,143.833 128,151.333 128,160L128,864C128,872.667 131.167,880.167 137.5,886.5C143.833,892.833 151.333,896 160,896ZM864,896C872.667,896 880.167,892.833 886.5,886.5C892.833,880.167 896,872.667 896,864L896,160C896,151.333 892.833,143.833 886.5,137.5C880.167,131.167 872.667,128 864,128L736,128C727.333,128 719.833,131.167 713.5,137.5C707.167,143.833 704,151.333 704,160L704,864C704,872.667 707.167,880.167 713.5,886.5C719.833,892.833 727.333,896 736,896Z" fill="context-fill" fill-opacity="context-fill-opacity">
  </path>
</svg>

<svg xmlns="http://www.w3.org/2000/svg" width="16" height="16" viewBox="64 64 896 896"><path fill="context-fill" fill-opacity="context-fill-opacity" d="M160 960q-19.5 0-37-7.5t-30.75-20.75T71.5 901 64 864V160q0-19.5 7.5-37t20.75-30.75T123 71.5t37-7.5h128q19.5 0 37 7.5t30.75 20.75T376.5 123t7.5 37v704q0 19.5-7.5 37t-20.75 30.75T325 952.5t-37 7.5Zm576 0q-19.5 0-37-7.5t-30.75-20.75T647.5 901t-7.5-37V160q0-19.5 7.5-37t20.75-30.75T699 71.5t37-7.5h128q19.5 0 37 7.5t30.75 20.75T952.5 123t7.5 37v704q0 19.5-7.5 37t-20.75 30.75T901 952.5t-37 7.5Zm-448-64q13 0 22.5-9.5T320 864V160q0-13-9.5-22.5T288 128H160q-13 0-22.5 9.5T128 160v704q0 13 9.5 22.5T160 896Zm576 0q13 0 22.5-9.5T896 864V160q0-13-9.5-22.5T864 128H736q-13 0-22.5 9.5T704 160v704q0 13 9.5 22.5T736 896Z"/></svg>
